; generated by Slic3r 0.7.1 on 2014-03-21 at 13:52:13

; layer_height = 0.4
; perimeters = 3
; solid_layers = 3
; fill_density = 0.4
; nozzle_diameter = 0.5
; filament_diameter = 3
; extrusion_multiplier = 1
; perimeter_speed = 30
; infill_speed = 60
; travel_speed = 130
; extrusion_width_ratio = 0
; scale = 1
; single wall width = 0.53mm

M104 S200 ; set temperature

M109 S200 ; wait for temperature to be reached
G90 ; use absolute coordinates
G21 ; set units to millimeters
G92 E0 ; reset extrusion distance
M82 ; use absolute distances for extrusion
G1 Z0.400 F7800.000
G1 X87.701 Y72.660
G1 F1800.000 E1.00000
G1 X87.871 Y72.450 F540.000 E1.00794
G1 X88.251 Y72.070 E1.02375
G1 X89.411 Y71.150 E1.06728
G1 X89.681 Y70.970 E1.07683
G1 X89.961 Y70.810 E1.08631
G1 X90.241 Y70.670 E1.09551
G1 X91.411 Y70.180 E1.13281
G1 X91.721 Y70.080 E1.14239
G1 X92.031 Y70.000 E1.15181
G1 X93.281 Y69.810 E1.18898
G1 X94.041 Y69.760 E1.21138
G1 X105.951 Y69.760 E1.56160
G1 X106.711 Y69.810 E1.58399
G1 X107.651 Y69.940 E1.61190
G1 X107.961 Y70.000 E1.62118
G1 X108.271 Y70.080 E1.63060
G1 X108.581 Y70.180 E1.64018
G1 X109.751 Y70.670 E1.67748
G1 X110.031 Y70.810 E1.68668
G1 X110.311 Y70.970 E1.69616
G1 X111.541 Y71.890 E1.74133
G1 X111.741 Y72.070 E1.74924
G1 X112.121 Y72.450 E1.76504
G1 X124.711 Y87.860 E2.35019
G1 X125.081 Y88.390 E2.36919
G1 X125.241 Y88.670 E2.37868
G1 X125.381 Y88.950 E2.38788
G1 X125.871 Y90.130 E2.42545
G1 X125.971 Y90.430 E2.43475
G1 X126.121 Y91.060 E2.45379
G1 X126.241 Y92.020 E2.48224
G1 X126.291 Y92.760 E2.50405
G1 X126.291 Y105.990 E2.89308
G1 X126.241 Y106.750 E2.91548
G1 X126.111 Y107.690 E2.94339
G1 X126.051 Y108.000 E2.95267
G1 X125.971 Y108.310 E2.96208
G1 X125.871 Y108.620 E2.97166
G1 X125.511 Y109.490 E2.99935
G1 X125.131 Y110.260 E3.02460
G1 X115.431 Y126.600 E3.58337
G1 X114.901 Y127.280 E3.60872
G1 X114.701 Y127.500 E3.61746
G1 X114.281 Y127.890 E3.63431
G1 X113.821 Y128.240 E3.65131
G1 X112.641 Y128.960 E3.69196
G1 X112.121 Y129.220 E3.70905
G1 X111.581 Y129.420 E3.72599
G1 X111.031 Y129.570 E3.74275
G1 X110.741 Y129.630 E3.75146
G1 X110.451 Y129.670 E3.76007
G1 X91.211 Y130.140 E4.32599
G1 X90.651 Y130.130 E4.34246
G1 X89.811 Y130.010 E4.36741
G1 X89.271 Y129.860 E4.38389
G1 X88.491 Y129.560 E4.40847
G1 X87.281 Y128.910 E4.44886
G1 X86.811 Y128.600 E4.46541
G1 X86.371 Y128.240 E4.48213
G1 X85.961 Y127.840 E4.49897
G1 X85.591 Y127.410 E4.51566
G1 X74.931 Y110.380 E5.10644
G1 X74.481 Y109.490 E5.13577
G1 X74.121 Y108.620 E5.16346
G1 X74.021 Y108.310 E5.17303
G1 X73.941 Y108.000 E5.18245
G1 X73.751 Y106.750 E5.21963
G1 X73.701 Y105.990 E5.24202
G1 X73.701 Y92.760 E5.63106
G1 X73.751 Y92.020 E5.65287
G1 X73.871 Y91.060 E5.68131
G1 X74.021 Y90.430 E5.70036
G1 X74.121 Y90.130 E5.70966
G1 X74.611 Y88.950 E5.74723
G1 X74.751 Y88.670 E5.75643
G1 X74.911 Y88.390 E5.76592
G1 X75.661 Y87.370 E5.80314
G1 X87.651 Y72.721 E6.35980
G1 F1800.000 E5.35980
G92 E0
G1 X105.291 Y111.863 F7800.000
G1 F1800.000 E1.00000
G1 X105.671 Y111.740 F540.000 E1.01173
G1 X106.069 Y111.715 E1.02345
G1 X106.461 Y111.790 E1.03518
G1 X106.821 Y111.959 E1.04691
G1 X107.129 Y112.214 E1.05864
G1 X107.363 Y112.536 E1.07036
G1 X107.510 Y112.907 E1.08209
G1 X107.560 Y113.303 E1.09382
G1 X107.510 Y113.698 E1.10554
G1 X107.363 Y114.069 E1.11727
G1 X107.129 Y114.392 E1.12900
G1 X106.821 Y114.646 E1.14073
G1 X106.461 Y114.816 E1.15245
G1 X106.069 Y114.891 E1.16418
G1 X105.671 Y114.866 E1.17591
G1 X105.291 Y114.742 E1.18763
G1 X104.955 Y114.529 E1.19936
G1 X104.682 Y114.238 E1.21109
G1 X104.490 Y113.888 E1.22282
G1 X104.390 Y113.502 E1.23454
G1 X104.390 Y113.103 E1.24627
G1 X104.490 Y112.717 E1.25800
G1 X104.682 Y112.368 E1.26972
G1 X104.955 Y112.077 E1.28145
G1 X105.225 Y111.905 E1.29086
G1 X105.070 Y111.393 F7800.000
G1 X105.573 Y111.230 F540.000 E1.30642
G1 X106.101 Y111.197 E1.32197
G1 X106.621 Y111.296 E1.33753
G1 X107.100 Y111.521 E1.35308
G1 X107.507 Y111.858 E1.36864
G1 X107.818 Y112.286 E1.38419
G1 X108.013 Y112.778 E1.39975
G1 X108.079 Y113.303 E1.41530
G1 X108.013 Y113.828 E1.43086
G1 X107.818 Y114.319 E1.44641
G1 X107.507 Y114.747 E1.46196
G1 X107.100 Y115.085 E1.47752
G1 X106.621 Y115.310 E1.49307
G1 X106.101 Y115.409 E1.50863
G1 X105.573 Y115.376 E1.52418
G1 X105.070 Y115.212 E1.53974
G1 X104.624 Y114.929 E1.55529
G1 X104.262 Y114.543 E1.57085
G1 X104.007 Y114.080 E1.58640
G1 X103.875 Y113.567 E1.60196
G1 X103.875 Y113.038 E1.61751
G1 X104.007 Y112.526 E1.63307
G1 X104.262 Y112.062 E1.64862
G1 X104.624 Y111.677 E1.66418
G1 X105.004 Y111.436 E1.67741
G1 X103.961 Y110.301 F7800.000
G1 X103.368 Y111.023 F540.000 E1.70488
G1 X102.647 Y111.615 E1.73234
G1 X101.823 Y112.055 E1.75980
G1 X100.929 Y112.326 E1.78726
G1 X100.000 Y112.418 E1.81472
G1 X99.071 Y112.326 E1.84218
G1 X98.177 Y112.055 E1.86964
G1 X97.353 Y111.615 E1.89710
G1 X96.632 Y111.023 E1.92456
G1 X96.039 Y110.301 E1.95202
G1 X95.599 Y109.477 E1.97948
G1 X95.328 Y108.583 E2.00694
G1 X95.236 Y107.654 E2.03440
G1 X95.328 Y106.725 E2.06186
G1 X95.599 Y105.831 E2.08932
G1 X96.039 Y105.008 E2.11678
G1 X96.632 Y104.286 E2.14424
G1 X97.353 Y103.693 E2.17170
G1 X98.177 Y103.253 E2.19916
G1 X99.071 Y102.982 E2.22663
G1 X100.000 Y102.890 E2.25409
G1 X100.929 Y102.982 E2.28155
G1 X101.823 Y103.253 E2.30901
G1 X102.647 Y103.693 E2.33647
G1 X103.368 Y104.286 E2.36393
G1 X103.961 Y105.008 E2.39139
G1 X104.401 Y105.831 E2.41885
G1 X104.672 Y106.725 E2.44631
G1 X104.764 Y107.654 E2.47377
G1 X104.672 Y108.583 E2.50123
G1 X104.401 Y109.477 E2.52869
G1 X103.998 Y110.231 E2.55384
G1 X104.391 Y110.588 F7800.000
G1 X103.735 Y111.389 F540.000 E2.58428
G1 X102.934 Y112.046 E2.61473
G1 X102.021 Y112.534 E2.64517
G1 X101.030 Y112.834 E2.67561
G1 X100.000 Y112.936 E2.70606
G1 X98.970 Y112.834 E2.73650
G1 X97.979 Y112.534 E2.76695
G1 X97.066 Y112.045 E2.79739
G1 X96.265 Y111.389 E2.82784
G1 X95.609 Y110.588 E2.85828
G1 X95.121 Y109.675 E2.88873
G1 X94.820 Y108.684 E2.91917
G1 X94.719 Y107.654 E2.94962
G1 X94.820 Y106.624 E2.98006
G1 X95.121 Y105.633 E3.01051
G1 X95.609 Y104.720 E3.04095
G1 X96.265 Y103.920 E3.07139
G1 X97.066 Y103.263 E3.10184
G1 X97.979 Y102.775 E3.13228
G1 X98.970 Y102.474 E3.16273
G1 X100.000 Y102.373 E3.19317
G1 X101.030 Y102.474 E3.22362
G1 X102.021 Y102.775 E3.25406
G1 X102.934 Y103.263 E3.28451
G1 X103.735 Y103.920 E3.31495
G1 X104.391 Y104.720 E3.34540
G1 X104.879 Y105.633 E3.37584
G1 X105.180 Y106.624 E3.40629
G1 X105.281 Y107.654 E3.43673
G1 X105.180 Y108.684 E3.46717
G1 X104.879 Y109.675 E3.49762
G1 X104.428 Y110.519 E3.52575
G1 F1800.000 E2.52575
G92 E0
G1 X95.572 Y112.907 F7800.000
G1 F1800.000 E1.00000
G1 X95.622 Y113.303 F540.000 E1.01173
G1 X95.572 Y113.698 E1.02345
G1 X95.425 Y114.069 E1.03518
G1 X95.191 Y114.392 E1.04691
G1 X94.884 Y114.646 E1.05864
G1 X94.523 Y114.816 E1.07036
G1 X94.131 Y114.891 E1.08209
G1 X93.733 Y114.866 E1.09382
G1 X93.354 Y114.742 E1.10554
G1 X93.017 Y114.529 E1.11727
G1 X92.744 Y114.238 E1.12900
G1 X92.552 Y113.888 E1.14073
G1 X92.453 Y113.502 E1.15245
G1 X92.453 Y113.103 E1.16418
G1 X92.552 Y112.717 E1.17591
G1 X92.744 Y112.368 E1.18763
G1 X93.017 Y112.077 E1.19936
G1 X93.354 Y111.863 E1.21109
G1 X93.733 Y111.740 E1.22282
G1 X94.131 Y111.715 E1.23454
G1 X94.523 Y111.790 E1.24627
G1 X94.884 Y111.959 E1.25800
G1 X95.191 Y112.214 E1.26972
G1 X95.425 Y112.536 E1.28145
G1 X95.543 Y112.834 E1.29086
G1 X96.075 Y112.778 F7800.000
G1 X96.141 Y113.303 F540.000 E1.30642
G1 X96.075 Y113.828 E1.32197
G1 X95.880 Y114.319 E1.33753
G1 X95.569 Y114.747 E1.35308
G1 X95.162 Y115.085 E1.36864
G1 X94.683 Y115.310 E1.38419
G1 X94.164 Y115.409 E1.39975
G1 X93.636 Y115.376 E1.41530
G1 X93.133 Y115.212 E1.43086
G1 X92.686 Y114.929 E1.44641
G1 X92.324 Y114.543 E1.46196
G1 X92.069 Y114.080 E1.47752
G1 X91.938 Y113.567 E1.49307
G1 X91.938 Y113.038 E1.50863
G1 X92.069 Y112.526 E1.52418
G1 X92.324 Y112.062 E1.53974
G1 X92.686 Y111.677 E1.55529
G1 X93.133 Y111.393 E1.57085
G1 X93.636 Y111.230 E1.58640
G1 X94.164 Y111.197 E1.60196
G1 X94.683 Y111.296 E1.61751
G1 X95.162 Y111.521 E1.63307
G1 X95.569 Y111.858 E1.64862
G1 X95.880 Y112.286 E1.66418
G1 X96.046 Y112.705 E1.67741
G1 X96.578 Y112.649 F7800.000
G1 X96.661 Y113.303 F540.000 E1.69680
G1 X96.578 Y113.957 E1.71618
G1 X96.335 Y114.570 E1.73556
G1 X95.948 Y115.103 E1.75494
G1 X95.440 Y115.523 E1.77433
G1 X94.844 Y115.804 E1.79371
G1 X94.196 Y115.927 E1.81309
G1 X93.538 Y115.886 E1.83247
G1 X92.912 Y115.682 E1.85186
G1 X92.355 Y115.329 E1.87124
G1 X91.904 Y114.848 E1.89062
G1 X91.586 Y114.271 E1.91000
G1 X91.422 Y113.632 E1.92938
G1 X91.422 Y112.973 E1.94877
G1 X91.586 Y112.335 E1.96815
G1 X91.904 Y111.757 E1.98753
G1 X92.355 Y111.277 E2.00691
G1 X92.912 Y110.923 E2.02630
G1 X93.538 Y110.720 E2.04568
G1 X94.196 Y110.678 E2.06506
G1 X94.844 Y110.802 E2.08444
G1 X95.290 Y111.012 E2.09894
G1 X95.178 Y110.876 E2.10410
G1 X94.642 Y109.873 E2.13753
G1 X94.312 Y108.785 E2.17096
G1 X94.201 Y107.654 E2.20439
G1 X94.312 Y106.523 E2.23782
G1 X94.642 Y105.435 E2.27125
G1 X95.178 Y104.432 E2.30468
G1 X95.899 Y103.554 E2.33810
G1 X96.778 Y102.832 E2.37153
G1 X97.781 Y102.296 E2.40496
G1 X98.869 Y101.966 E2.43839
G1 X100.000 Y101.855 E2.47182
G1 X101.131 Y101.966 E2.50525
G1 X102.219 Y102.296 E2.53868
G1 X103.222 Y102.832 E2.57211
G1 X104.101 Y103.554 E2.60553
G1 X104.822 Y104.432 E2.63896
G1 X105.358 Y105.435 E2.67239
G1 X105.688 Y106.523 E2.70582
G1 X105.799 Y107.654 E2.73925
G1 X105.688 Y108.785 E2.77268
G1 X105.358 Y109.873 E2.80611
G1 X104.822 Y110.876 E2.83954
G1 X104.711 Y111.012 E2.84469
G1 X104.849 Y110.923 E2.84952
G1 X105.476 Y110.720 E2.86891
G1 X106.134 Y110.678 E2.88829
G1 X106.781 Y110.802 E2.90767
G1 X107.378 Y111.083 E2.92705
G1 X107.886 Y111.503 E2.94644
G1 X108.273 Y112.036 E2.96582
G1 X108.516 Y112.649 E2.98520
G1 X108.598 Y113.303 E3.00458
G1 X108.516 Y113.957 E3.02396
G1 X108.273 Y114.570 E3.04335
G1 X107.886 Y115.103 E3.06273
G1 X107.378 Y115.523 E3.08211
G1 X106.781 Y115.804 E3.10149
G1 X106.134 Y115.927 E3.12088
G1 X105.476 Y115.886 E3.14026
G1 X104.849 Y115.682 E3.15964
G1 X104.293 Y115.329 E3.17902
G1 X103.842 Y114.848 E3.19841
G1 X103.524 Y114.271 E3.21779
G1 X103.360 Y113.632 E3.23717
G1 X103.360 Y112.973 E3.25655
G1 X103.524 Y112.335 E3.27593
G1 X103.631 Y112.140 E3.28247
G1 X103.222 Y112.476 E3.29803
G1 X102.219 Y113.012 E3.33146
G1 X101.131 Y113.342 E3.36489
G1 X100.000 Y113.453 E3.39832
G1 X98.869 Y113.342 E3.43174
G1 X97.781 Y113.012 E3.46517
G1 X96.778 Y112.476 E3.49860
G1 X96.380 Y112.149 E3.51374
G1 X96.549 Y112.576 E3.52721
G1 F1800.000 E2.52721
G92 E0
G1 X93.344 Y118.092 F7800.000
G1 F1800.000 E1.00000
G1 X92.401 Y117.445 F540.000 E1.03363
G1 X91.533 Y116.718 E1.06694
G1 X90.748 Y115.917 E1.09991
G1 X90.054 Y115.051 E1.13255
G1 X89.456 Y114.128 E1.16488
G1 X88.960 Y113.158 E1.19691
G1 X88.570 Y112.150 E1.22869
G1 X88.289 Y111.113 E1.26027
G1 X88.156 Y110.285 E1.28495
G1 X90.045 Y110.285 E1.34047
G1 X90.045 Y106.704 E1.44576
G1 X88.048 Y106.704 E1.50448
G1 X88.038 Y104.051 E1.58248
G1 X84.780 Y104.051 E1.67829
G1 X84.780 Y105.923 E1.73332
G1 X84.723 Y106.357 E1.74619
G1 X84.588 Y106.682 E1.75654
G1 X84.374 Y106.961 E1.76690
G1 X84.094 Y107.176 E1.77725
G1 X83.769 Y107.310 E1.78760
G1 X83.335 Y107.367 E1.80047
G1 X82.178 Y107.367 E1.83449
G1 X81.744 Y107.310 E1.84736
G1 X81.419 Y107.176 E1.85771
G1 X81.140 Y106.961 E1.86806
G1 X80.925 Y106.682 E1.87842
G1 X80.791 Y106.357 E1.88877
G1 X80.733 Y105.923 E1.90164
G1 X80.733 Y92.828 E2.28669
G1 X80.791 Y92.394 E2.29956
G1 X80.925 Y92.069 E2.30991
G1 X81.140 Y91.790 E2.32027
G1 X81.419 Y91.575 E2.33062
G1 X81.744 Y91.441 E2.34098
G1 X82.178 Y91.383 E2.35384
G1 X83.335 Y91.383 E2.38786
G1 X83.769 Y91.441 E2.40073
G1 X84.094 Y91.575 E2.41108
G1 X84.374 Y91.790 E2.42144
G1 X84.588 Y92.069 E2.43179
G1 X84.723 Y92.394 E2.44215
G1 X84.780 Y92.828 E2.45501
G1 X84.780 Y100.005 E2.66605
G1 X88.042 Y100.005 E2.76197
G1 X88.053 Y87.186 E3.13891
G1 X88.093 Y86.858 E3.14865
G1 X88.184 Y86.624 E3.15601
G1 X88.328 Y86.420 E3.16337
G1 X88.519 Y86.257 E3.17074
G1 X88.765 Y86.134 E3.17884
G1 X88.885 Y86.103 E3.18247
G1 X88.931 Y86.095 E3.18386
G1 X89.138 Y86.078 E3.18996
G1 X92.671 Y86.078 E3.29385
G1 X92.671 Y78.238 E3.52440
G1 X92.728 Y77.804 E3.53726
G1 X92.863 Y77.478 E3.54762
G1 X93.077 Y77.199 E3.55797
G1 X93.357 Y76.985 E3.56833
G1 X93.682 Y76.850 E3.57868
G1 X94.116 Y76.793 E3.59155
G1 X95.273 Y76.793 E3.62557
G1 X95.707 Y76.850 E3.63843
G1 X96.032 Y76.985 E3.64879
G1 X96.311 Y77.199 E3.65914
G1 X96.526 Y77.478 E3.66950
G1 X96.660 Y77.804 E3.67985
G1 X96.718 Y78.238 E3.69272
G1 X96.718 Y86.078 E3.92326
G1 X103.282 Y86.078 E4.11631
G1 X103.282 Y78.238 E4.34685
G1 X103.340 Y77.804 E4.35972
G1 X103.474 Y77.478 E4.37007
G1 X103.689 Y77.199 E4.38042
G1 X103.968 Y76.985 E4.39078
G1 X104.293 Y76.850 E4.40113
G1 X104.727 Y76.793 E4.41400
G1 X105.884 Y76.793 E4.44802
G1 X106.318 Y76.850 E4.46089
G1 X106.643 Y76.985 E4.47124
G1 X106.923 Y77.199 E4.48159
G1 X107.137 Y77.478 E4.49195
G1 X107.272 Y77.804 E4.50230
G1 X107.329 Y78.238 E4.51517
G1 X107.329 Y86.078 E4.74571
G1 X110.826 Y86.078 E4.84856
G1 X111.206 Y86.131 E4.85982
G1 X111.425 Y86.222 E4.86680
G1 X111.633 Y86.382 E4.87452
G1 X111.800 Y86.602 E4.88266
G1 X111.901 Y86.848 E4.89046
G1 X111.948 Y87.193 E4.90071
G1 X111.958 Y100.005 E5.27745
G1 X115.220 Y100.005 E5.37337
G1 X115.220 Y92.828 E5.58441
G1 X115.277 Y92.394 E5.59728
G1 X115.412 Y92.069 E5.60763
G1 X115.626 Y91.790 E5.61798
G1 X115.906 Y91.575 E5.62834
G1 X116.231 Y91.441 E5.63869
G1 X116.665 Y91.383 E5.65156
G1 X117.822 Y91.383 E5.68558
G1 X118.256 Y91.441 E5.69845
G1 X118.581 Y91.575 E5.70880
G1 X118.860 Y91.790 E5.71915
G1 X119.075 Y92.069 E5.72951
G1 X119.209 Y92.394 E5.73986
G1 X119.267 Y92.828 E5.75273
G1 X119.267 Y105.923 E6.13778
G1 X119.209 Y106.357 E6.15065
G1 X119.075 Y106.682 E6.16100
G1 X118.860 Y106.961 E6.17136
G1 X118.581 Y107.176 E6.18171
G1 X118.256 Y107.310 E6.19206
G1 X117.822 Y107.367 E6.20493
G1 X116.665 Y107.367 E6.23895
G1 X116.231 Y107.310 E6.25182
G1 X115.906 Y107.176 E6.26217
G1 X115.626 Y106.961 E6.27253
G1 X115.412 Y106.682 E6.28288
G1 X115.277 Y106.357 E6.29323
G1 X115.220 Y105.923 E6.30610
G1 X115.220 Y104.051 E6.36113
G1 X111.962 Y104.051 E6.45694
G1 X111.952 Y106.704 E6.53494
G1 X109.955 Y106.704 E6.59366
G1 X109.955 Y110.285 E6.69895
G1 X111.844 Y110.285 E6.75447
G1 X111.711 Y111.113 E6.77915
G1 X111.430 Y112.150 E6.81073
G1 X111.040 Y113.158 E6.84251
G1 X110.544 Y114.128 E6.87455
G1 X109.946 Y115.051 E6.90687
G1 X109.252 Y115.917 E6.93951
G1 X108.467 Y116.718 E6.97248
G1 X107.599 Y117.445 E7.00579
G1 X106.656 Y118.093 E7.03943
G1 X105.646 Y118.652 E7.07338
G1 X104.580 Y119.119 E7.10760
G1 X103.468 Y119.487 E7.14205
G1 X102.322 Y119.752 E7.17664
G1 X101.141 Y119.912 E7.21167
G1 X100.000 Y119.952 E7.24525
G1 X98.859 Y119.912 E7.27883
G1 X97.678 Y119.752 E7.31386
G1 X96.532 Y119.487 E7.34845
G1 X95.420 Y119.119 E7.38290
G1 X94.354 Y118.652 E7.41712
G1 X93.413 Y118.131 E7.44876
G1 X93.384 Y118.704 F7800.000
G1 X93.368 Y118.734 F540.000 E7.44976
G1 X92.089 Y117.856 E7.49538
G1 X91.182 Y117.096 E7.53016
G1 X90.362 Y116.259 E7.56463
G1 X89.635 Y115.353 E7.59879
G1 X89.009 Y114.386 E7.63265
G1 X88.489 Y113.369 E7.66624
G1 X88.080 Y112.311 E7.69960
G1 X87.785 Y111.222 E7.73278
G1 X87.607 Y110.112 E7.76583
G1 X87.589 Y109.770 E7.77592
G1 X89.529 Y109.770 E7.83298
G1 X89.529 Y107.219 E7.90797
G1 X87.535 Y107.219 E7.96663
G1 X87.525 Y104.567 E8.04464
G1 X85.295 Y104.567 E8.11020
G1 X85.295 Y105.957 E8.15108
G1 X85.225 Y106.491 E8.16693
G1 X85.038 Y106.942 E8.18127
G1 X84.741 Y107.329 E8.19562
